X:1
T:Archibald McDonald
C:Transcribed from Johnny Cunningham
R:air
I:abc2nwc
M:3/4
L:1/8
K:F
[Q:1/4=66]DE|F3G A2|f3e d2|c3A F2|G4DE|
F3G A2|f3g a2|A d3^c2|d4DE|F3G A2|
f3e d2|c3A F2|G4DE|F3G A2|f3e d2|A d3^c2|
d4de|f3e d2|c3B A2|B3A G2|A4DE|F3G A2|
f3e d2|A d3^c2|d4fg|a3g f2|A f3d2|
c3A F2|G4DE|F3G A2|f3g a2|A d3^c2|d4|]
